src/assets/logo.svg

<svg width="277" height="277" viewBox="0 0 277 277" fill="none" xmlns="http://www.w3.org/2000/svg">
    <path d="M8 137C8 171.743 21.7491 205.064 46.2226 229.631C70.6961 254.198 103.889 268 138.5 268C173.111 268 206.304 254.198 230.777 229.631C255.251 205.064 269 171.743 269 137C269 102.257 255.251 68.9363 230.777 44.369C206.304 19.8017 173.111 6 138.5 6C103.889 6 70.6961 19.8017 46.2226 44.369C21.7491 68.9363 8 102.257 8 137" fill="url(#paint0_linear_0_1)"/>
    <path d="M222.728 82.172L165.734 219.99C163.217 226.067 157.464 230 150.812 230C150.632 230 150.452 230 150.272 230C143.44 229.821 137.687 225.531 135.53 219.096L122.585 181.558C121.506 178.341 123.304 174.766 126.54 173.693C129.776 172.621 133.372 174.408 134.451 177.626L147.396 215.164C148.115 217.309 149.913 217.487 150.632 217.487C151.351 217.487 153.149 217.309 154.048 215.342L211.041 77.5244C211.94 75.5581 210.682 74.1281 210.322 73.5919C209.963 73.0556 208.345 71.9831 206.367 72.8769L67.9285 129.541C65.9508 130.435 65.771 132.223 65.771 132.938C65.771 133.653 66.1306 135.44 68.1083 136.155L112.157 151.17L169.33 102.907C172.027 100.583 175.982 100.941 178.14 103.622C180.477 106.304 180.118 110.236 177.421 112.381L117.551 162.789C115.932 164.219 113.595 164.577 111.438 163.862L63.9731 147.774C57.5006 145.629 53.1857 139.909 53.0059 133.116C52.8261 126.324 56.7815 120.425 63.0741 117.744L201.692 61.258C207.805 58.7554 214.637 60.0067 219.312 64.833C223.986 69.3018 225.245 76.0944 222.728 82.172Z" fill="white"/>
    <path d="M138.5 277C62.2035 277 0 214.796 0 138.5C0 62.2035 62.2035 0 138.5 0C214.796 0 277 62.2035 277 138.5C277 214.796 214.796 277 138.5 277ZM138.5 9.7193C67.5491 9.7193 9.7193 67.5491 9.7193 138.5C9.7193 209.451 67.5491 267.281 138.5 267.281C209.451 267.281 267.281 209.451 267.281 138.5C267.281 67.5491 209.451 9.7193 138.5 9.7193Z" fill="#8A3713"/>
    <defs>
        <linearGradient id="paint0_linear_0_1" x1="8" y1="137" x2="269" y2="137" gradientUnits="userSpaceOnUse">
            <stop offset="0.19" stop-color="#E23A1C"/>
            <stop offset="1" stop-color="#FEFF00"/>
        </linearGradient>
    </defs>
</svg>

<svg xmlns="http://www.w3.org/2000/svg" width="277" height="277" fill="none" viewBox="0 0 277 277"><path fill="url(#a)" d="M8 137c0 34.743 13.75 68.064 38.223 92.631C70.696 254.198 103.889 268 138.5 268c34.611 0 67.804-13.802 92.277-38.369C255.251 205.064 269 171.743 269 137s-13.749-68.064-38.223-92.631C206.304 19.802 173.111 6 138.5 6c-34.611 0-67.804 13.802-92.277 38.369C21.749 68.936 8 102.257 8 137"/><path fill="#fff" d="M222.728 82.172 165.734 219.99c-2.517 6.077-8.27 10.01-14.922 10.01h-.54c-6.832-.179-12.585-4.469-14.742-10.904l-12.945-37.538c-1.079-3.217.719-6.792 3.955-7.865 3.236-1.072 6.832.715 7.911 3.933l12.945 37.538c.719 2.145 2.517 2.323 3.236 2.323.719 0 2.517-.178 3.416-2.145l56.993-137.818c.899-1.966-.359-3.396-.719-3.932-.359-.536-1.977-1.609-3.955-.715L67.929 129.54c-1.978.894-2.158 2.682-2.158 3.397 0 .715.36 2.502 2.337 3.217l44.049 15.015 57.173-48.263c2.697-2.324 6.652-1.966 8.81.715 2.337 2.682 1.978 6.614-.719 8.759l-59.87 50.408c-1.619 1.43-3.956 1.788-6.113 1.073l-47.465-16.088c-6.472-2.145-10.787-7.865-10.967-14.658-.18-6.792 3.776-12.691 10.068-15.372l138.618-56.486c6.113-2.503 12.945-1.251 17.62 3.575 4.674 4.469 5.933 11.261 3.416 17.339Z"/><path fill="#8A3713" d="M138.5 277C62.203 277 0 214.796 0 138.5 0 62.203 62.204 0 138.5 0 214.796 0 277 62.204 277 138.5c0 76.296-62.204 138.5-138.5 138.5m0-267.28C67.55 9.72 9.72 67.55 9.72 138.5c0 70.951 57.83 128.781 128.78 128.781 70.951 0 128.781-57.83 128.781-128.781 0-70.95-57.83-128.78-128.781-128.78Z"/><defs><linearGradient id="a" x1="8" x2="269" y1="137" y2="137" gradientUnits="userSpaceOnUse"><stop offset=".19" stop-color="#E23A1C"/><stop offset="1" stop-color="#FEFF00"/></linearGradient></defs></svg>
